X:852
T:Star of Munster, The
R:reel
S:Paddy Canny tape
H:f's in bars 3 & 7 of 2nd part are played slightly sharp
H:Usually in Ador, #11. Also in G, #853.
Z:id:hn-reel-852
M:C|
L:1/8
K:Gdor
BAGB AGFD | GFDE FDCF | DE~F2 GABc | dg (3ggg fdcA |
BAGB AGFD | GFDE FDCF | DE~F2 GABc | defc AGGA |
B3A ~G3F | (3FED CF DFCF | DE~F2 GABc | dg (3ggg fdcA |
dcAd cAGc | AGFD GFD2 | G,A,B,D GABc | defc AGG2 ||
|: ^fggf gd (3ddd | gdad gdde | f2fe fc (3ccc | ^fgag fdcA |
dgg^f gd (3ddd | gdad gdde | fefa ~g3-g | ~a3g ^fdcA :|

